public/assets/images/icons/blue/file-office.svg

<svg width="16" height="16" xmlns="http://www.w3.org/2000/svg" viewBox="0 0 16 16" shape-rendering="geometricPrecision" fill="#24437c"><path d="M10.021 15.177l3.437-3.165h-3.437z"/><path d="M2.02 0v16h7.021v-4.905h4.941V0H2.02zM13 9.97H8v5H3.083v-14H13v9z"/><path d="M11.504 4.585a.98.98 0 1 0-1.484-1.28l-.512.593L10.99 5.18l.514-.595zm-6.275 5.767l1.008-.396-.756-.652-.252 1.048zm.475-2.048l1.482 1.282 3.453-3.999-1.483-1.28-3.452 3.997zM3.999 1.97h3v1h-3zm0 2h3v1h-3z"/></svg>

<?xml version="1.0"?><!DOCTYPE svg PUBLIC "-//W3C//DTD SVG 1.1//EN" "http://www.w3.org/Graphics/SVG/1.1/DTD/svg11.dtd"><svg width="16px" height="16px" xmlns="http://www.w3.org/2000/svg" viewBox="0 0 16 16" shape-rendering="geometricPrecision" fill="#24437c"><g><g><polygon points="10.021,15.177 13.458,12.012 10.021,12.012"/><path d="M2.02,0v16h7.021v-4.905h4.941V0H2.02z M13,9.97h-5l0,5H3.083v-14H13V9.97z"/></g><path d="M11.504,4.585c0.349-0.41,0.304-1.027-0.106-1.377c-0.408-0.353-1.022-0.308-1.378,0.097l0,0 L9.508,3.898l1.482,1.282L11.504,4.585L11.504,4.585z M5.229,10.352l1.008-0.396L5.481,9.304L5.229,10.352z M5.704,8.304 l1.482,1.282l3.453-3.999l-1.483-1.28L5.704,8.304z"/><rect x="3.999" y="1.97" width="3" height="1"/><rect x="3.999" y="3.97" width="3" height="1"/></g></svg>
